!!!SOCIAL_FUNCTION:	songs concerning the gift of a pony
!!!PDT:	1913
!!!OTL: No_123_Song_Accompanying_the_Gift_of_a_Pony.krn
!!!REG: Great_Lakes
!!!LANG: Non-Tone
!!!LING_GROUP: Algonquin
**kern	**kern
*staff2	*staff1
=1-	=1-
*clefF4	*clefF4
*k[b-e-a-d-g-c-]	*k[b-e-a-d-g-c-]
*M2/4	*M2/4
12GG-^/	4e-\
12r	.
12GG-/	.
12GG-^/	4e-\
12r	.
12GG-/	.
=2	=2
2r	8.e-\L
.	16B-\Jk
.	4B-\
=3	=3
2r	4e-\
.	4e-\
=4	=4
2r	8.e-\L
.	16B-\Jk
.	4B-\
=5||	=5||
*M3/4	*M3/4
2.r	8B-\L
.	16.A-\L
.	32G-\JJk
.	4G-\
.	8A-\L
.	8G-\J
=6||	=6||
*M2/4	*M2/4
2r	16E-\LK
.	8.E-\J
.	4E-\
=7	=7
2r	8G-\L
.	16.A-\L
.	32G-\JJk
.	4G-\
=8	=8
2r	16E-\LK
.	8.E-\J
.	8E-\L
.	8E-\J
=9	=9
2r	[2E-\
=10	=10
2r	2E-\]
=11	=11
2r	8B-\L
.	16.B-\L
.	32B-\JJk
.	4B-\
=12||	=12||
*M3/4	*M3/4
2.r	8B-\L
.	16.A-\L
.	32G-\JJk
.	4G-\
.	8A-\L
.	8G-\J
=13||	=13||
*M2/4	*M2/4
2r	16E-\LK
.	8.E-\J
.	4E-\
=14	=14
2r	8G-\L
.	8A-\J
.	4G-\
=15	=15
2r	16E-\LK
.	8.E-\J
.	8E-\L
.	8E-\J
=16	=16
2r	[2E-\
=17	=17
2r	2E-\]
==	==
*-	*-
